X: 28485
T: Muñera'l Centru
R: jig
M: 6/8
K: Gmajor
GBc|:dgd dBc|~e3 eAB|cdc cBc|e2d BGB|
dgd dBc|~e3 eAB|cdc AFA|1 G3 GBc:|2 G3 BAB||
|:cdc BAB|cdc BAB|cdc AFA|B2G GAB|
cdc BAB|c2c BAB|cdc AFA|1 G2G BAB:|2 G2G BGB||
|:cdc AFA|B2G GAB|cdc AFA|1 G3 BGB:|2 G3 BAG||
|:F2A Aed|B2G GAB|cdc AFA|1 B2G BAG:|2 G3 GBc||
S ded def|g3 fef|gag fef|g2d def|
gag fef|d2d def|g3 fef|g2d def|
gag fef|d2d gfe|:d2B c2e|dBG B2d|
cdc ABc|e2d gfe|d2B c2e|dBG B2d|
cdc AFA|1 G2d gfe:|2 HG3 c2c ]|:BGB AFA|
[1 dBG c2c|BGB AFA|GAB c2c:|
[2 dBG cec|BdB AFA|G3 GAB||
c2c cBc|d2B- BAB|c2A AFA|B2G GAB|
cdc cBc|d2d gfe|ded cBA|G2B BGB|
|:~B3 BAB|cdc AFA|~A3 AFA|B2G BGB|
~B3 BAB|cdc AFA|~A3 ABA|1 G2G BGB:|2 G2d def||
g3 def|g2g def|gag fef|g2d def|
g2g def|g2g def|gag fef|d2g gfe|
d2B ceg|dBG B2d|cdc ABA|e2d gfe|
d2B c2e|dBG B2d|cdc AFA|G2d gfe|
d2B c2e|dBG B2d|cdc ABc|e2d gfe|
d2B ceg|dBG B2d|cdc AFA|G3 BAB|
|:cdc AFA|B2G GAB|cdc AFA|1 G3 BAB:|2 G3 BAG||
|:F2A Aed|B2G GAB|cdc AFA|1 B2G BAG:|2 G2d GBc||
|:ded dBc|~e3 eAB|cdc cBc|e2d BGB|
dgd dBc|~e3 eAB|cdc AFA|G3 GBc:|

